-----BEGIN PGP PUBLIC KEY BLOCK-----

mQINBGorkZMBEADQKn2OAYOdUR6yPk5zRMmA8T28N+pJ9njyFCENHZIEnmuSBUvb
aeyqcQnyswXoflfz4LnMiWJ9wYwKkKCvBZoqT0FsR55OHqXEizuYSXYBILsxZ0/q
NCwu010gInHb9WvNg4NkZ6zgGg86wEv0cntLL+X5R0iKAc8X++uCP7/HAj+rrDln
3OwXAdmA8oh0me47R59eseD2nNOk0VNZkbxB3CLPe179Cy8p9lKvs0AXIbOSQufe
p0M218Dn20vnJeo7gAI1C1ZkFngFgCr352wrow69DWqUOmnVhMcGMqGNqU/YDHeG
5MGIB3MbU4q2tFHNvYxPafncS59UcDtxSyAbfwmIFIgXsyJO05CSlHqiBscMSPRQ
P8FloHWzqnZQC8A0aOY/zG8qZ+28eEGmAy36sKA1zq1cLpmWN+uS5XCUSk5vajLU
dKeYzOzQSomF2+Lw1REXCuM7sv3gWy4O6tt07Yp69dPADPkAMbK0p7HjDD3GMRTW
hBONL0lSaL/SDi73JIcwXueWMp/Lk7q1lZkQDRnSp+CfjwOQMC5Ew5rQiLyIMHSa
zblZTTxOgBWxbsqj7O0SHcqXiFXp1hVe+kPC77LTcWqbYkbnv+Fk1NWOya7iqef8
u/sPoo+6xFf0V7NOGJyvHkfSyoIkzwaixMrS1TbAIam5cxTikIXOAhMF2QARAQAB
tC1WbGFkaW1pciBUaWNvbmEgPHZsYWRpbWlydGljb25hMzY5QGdtYWlsLmNvbT6J
Am0EEwEIAFcWIQTXrL/vBpEMYmOQqC40eqUQLCN+ogUCaiuRkxsUgAAAAAAEAA5t
YW51MiwyLjUrMS4xMiwyLDECGwMFCwkIBwICIgIGFQoJCAsCBBYCAwECHgcCF4AA
CgkQNHqlECwjfqJnqA/8Ds9qpazG9pZjQgwXWilOxhMcd6xNJ6Zg77vccfcEn6g0
TD7/qSc3lJNXdyM1hiBxwJVYoHRRNuGbMM/S7Rw80ZHcMHtwk+dmWY2YGq8tJ3hq
bXXHZdwP9PE27P2GzyKUVZLN1OAC6lIKLhWNWLNgqlfhlbY9TEVZEplp4W/rXuu6
G5LehlSovWGy7QgY4gRCzgVRQA4c5o1wEwhoiuWJwEfnLifpKLx6sfc0YgRN7ctQ
Pz0X+fuKl5RLJo3w9iV5/HZD2cHp6WYl6Sn306lt/UO9P4ffnYuvq5e9NIs/69ac
0lEcnUDHKLyX2tlEwZNGPMXayjJgRHBn+FuKfMuhA2spUJH5XlIzXls7di9PbJLk
YGJnkfZnZlWo0DgIQ+jGVqpf0LTDh7jGp7lPnCd6jISqqKpN6GSJ2xpuxEsCoAcz
KKlTnGMQP3wNRFu7ZuSwN0ZgoPbkA53yAKSi8NDdKav79t+J9DOkxgirdRU5VYTq
KJ1jrRmKX2Q830oPKcldLtjPRpIuoCjQBWj9LvYesz7iOtH3jK6YbjhjRZtk3Cnx
zFrdnu8LSGpbdmn88s7ZH81vTfgtpxiIgeZsNrS/VTyzHpk6KbCgXGCUFgw1gZeD
H/PeuMgPfroyUyp5RexVgZRj6PY1yv6rRRUXvnX31bvvj4n9JLHPvQ6MfvvrzF25
Ag0EaiuRkwEQALlb6VwhegU70h/g1Y3ThNiAiQFq64V+uDtJMlHLmo5loO0DWpLE
MQMzExSrsXXfpU/g80CTHZ3D5+u3E8NF2Wes/i+Hhzq98rp84MU5xjpcFNFq5HZC
WggXxsCiSV8s7nVgwIbQgI/WElTpjCGYjX0RtZNuSsW/0WyNtO9LLCzdz3T5h8lc
2iN/KYjxmZ3FxEB7lyP6fG/6ToZv/5zDKM7ui7TSAXNRejnjF6QH0hMOBwnVAOnp
jtYt7qbM40uFuzJMBKkF7xZ+UQzDelSTh9emEU3Lkow9rZAXYpUUAr852EQ5zo+v
wWDKzYgqi7+0ZF/D0XzIS9ylPU1uRrqYW16ZFjXzsngNoEdLVbyWNdPxsGTgSyHQ
ICDqiRyeLxCTO9fvNPZcsfCzZvrRky0XfIYA9b1epUXCn5MPdNZG6MEcIstkD6RZ
SZ7LmMYertuuhrR28AAZJy3WN9JaNOuCuxAkYuBgZkUc9idY1qBSmXoCraatjbLm
7PahFNLz/SpjxiQJHcOKEJVbcpqMIKXHyl3yZzebO/gqaogOcaNxYR4cvvMKo1/1
9JtUZhF5kZ6hdtgaT8v7KICA6+c77tYgy4XEqDygVs+e4f4klqI8Q9V+TfY7/Gb1
K73yR7xaysH4+MrfP0wR2BHPrcaGIsDrlWejm1Ll6leJByQj9uDGCadtABEBAAGJ
AlIEGAEIADwWIQTXrL/vBpEMYmOQqC40eqUQLCN+ogUCaiuRkxsUgAAAAAAEAA5t
YW51MiwyLjUrMS4xMiwyLDECGwwACgkQNHqlECwjfqJ27A/7B8KNP8p9sksQwYC2
JRTMo5731f4q841/Q/7FMpOpZFZofafu3dlVK4OWilSqgtWY61QQr67BnDV5DvQw
vPI797Ik+HSIPHmDgmu3acREoKKr+jEm4K7xCw9P+SdTiZqhfFgcpn3D0M5t8ALW
FqprvYuWHlG/Q2y5lhaffzvS5FyIE4aT/1pItGvImLUunM0f+V0UT+Ui4uApU7XP
VSzoidv/sYI6+ZZaoV4Wt3U9YQzV7FptdqcvEezHYBM7h9KTLBN1GZlnWxSP8jrE
+Aj1+GB17Ql/3e0m2EOU5Q8HJ2djfQxtOpjIVB9ayagM5qjNsEHv3+IqbE9Ipz3z
T/LRhrrW2vwSXz/jF0CHV0Sc8MUNZmt4ROjE66UxJWZ9amaQlic+9IhivNds5Fsr
qyQA1FhO1rfrPU9MxadawYx+bKAdNIQ/DYTMy26nktpQ/U/cqnWz/w876vMrYcN1
2+uf1Eg6RWwgKVGdotkPeQXWRGKTjklhdiWHm5uGEYlI9fVZDFe33roycIigp93V
poeqHaUCGRxRpL/wFcew7hDp8hxIBlX017Rb6Rfa9mBNb58YIJ2bFnIpDREKWQBO
MXtdyDigv9aV7sRBsf7IDdB9hagPtQ43RCJv5td12jsOtdvQM0snEj+cDFW1IDCV
WRU2Qagprwo6s7WRu3dXPmoOgLI=
=gcks
-----END PGP PUBLIC KEY BLOCK-----
